src/icons/polymer.svg

<svg width="16" height="16" viewBox="0 0 16 16" fill="none" xmlns="http://www.w3.org/2000/svg">
<path fill-rule="evenodd" clip-rule="evenodd" d="M9.68678 3.02L8.24978 5.507H11.1298L12.5738 3.02H9.68678ZM8.24978 5.507L6.80678 8L5.36978 10.493H8.24978L9.68678 8L11.1298 5.507H8.24978ZM3.92578 12.98H6.80578L8.24978 10.493H5.36978L3.92578 12.98Z" fill="#F07178"/>
<path fill-rule="evenodd" clip-rule="evenodd" d="M2.4899 5.507L3.9259 3.02H6.8059L5.3699 5.507H2.4899ZM2.4899 5.507L1.0459 8L2.4899 10.493H5.3699L3.9259 8L5.3699 5.507H2.4899ZM3.9259 12.98L5.3699 10.493H2.4899L3.9259 12.98ZM14.0099 5.507L12.5739 3.02L11.1299 5.507H14.0099ZM14.0099 5.507L15.4549 8L14.0109 10.493H11.1309L12.5739 8L11.1299 5.507H14.0099ZM11.1309 10.493L9.6929 12.98H12.5729L14.0109 10.493H11.1309Z" fill="#89DDFF"/>
</svg>

<svg xmlns="http://www.w3.org/2000/svg" width="16" height="16" fill="none"><g fill-rule="evenodd" clip-rule="evenodd"><path fill="#F07178" d="M9.687 3.02 8.25 5.507h2.88l1.444-2.487zM8.25 5.507 6.807 8 5.37 10.493h2.88L9.687 8l1.443-2.493zM3.926 12.98h2.88l1.444-2.487H5.37z"/><path fill="#89DDFF" d="M2.49 5.507 3.926 3.02h2.88L5.37 5.507zm0 0L1.046 8l1.444 2.493h2.88L3.926 8 5.37 5.507zm1.436 7.473 1.444-2.487H2.49zM14.01 5.507 12.574 3.02 11.13 5.507zm0 0L15.455 8l-1.444 2.493h-2.88L12.574 8 11.13 5.507zm-2.88 4.986L9.693 12.98h2.88l1.437-2.487z"/></g></svg>
